public/images/hashed/e371958d61652ebea4f9e054d023591b.svg

<?xml version="1.0" encoding="UTF-8"?>
<svg width="80px" height="80px" viewBox="0 0 80 80" version="1.1" xmlns="http://www.w3.org/2000/svg" xmlns:xlink="http://www.w3.org/1999/xlink">
    <!-- Generator: Sketch 64 (93537) - https://sketch.com -->
    <title>Icon-Architecture/64/Arch_AWS-CodeCommit_64</title>
    <desc>Created with Sketch.</desc>
    <defs>
        <linearGradient x1="0%" y1="100%" x2="100%" y2="0%" id="linearGradient-1">
            <stop stop-color="#2E27AD" offset="0%"></stop>
            <stop stop-color="#527FFF" offset="100%"></stop>
        </linearGradient>
    </defs>
    <g id="Icon-Architecture/64/Arch_AWS-CodeCommit_64" stroke="none" stroke-width="1" fill="none" fill-rule="evenodd">
        <g id="Icon-Architecture-BG/64/Developer-Tools" fill="url(#linearGradient-1)">
            <rect id="Rectangle" x="0" y="0" width="80" height="80"></rect>
        </g>
        <path d="M26.6283186,28.1047251 L24.6106195,28.1047251 L24.6106195,21.123052 C24.6106195,20.5645181 24.9707788,20.1326518 25.5367434,20.1326518 L32.6814159,20.1256701 L32.6814159,22.1204339 L27.9499115,22.1204339 L32.8115575,26.9387857 L31.366885,28.3730208 L26.5607257,23.6454307 L26.6283186,28.1047251 Z M54.6985487,38.972198 L56.5669381,39.7990276 L50.0255575,54.2451066 L48.158177,53.418277 L54.6985487,38.972198 Z M56.0090442,49.4646553 L60.0121593,46.57524 L56.4862301,43.0395213 L57.9440177,41.6182521 L62.3032566,45.9907742 C62.5120885,46.2002244 62.6190265,46.4894652 62.5938053,46.7826954 C62.5706018,47.0759257 62.4182655,47.3452188 62.1771504,47.5177659 L57.2146195,51.0983668 L56.0090442,49.4646553 Z M46.9657168,40.6627603 L48.171292,42.2964718 L44.1096637,45.2277771 L47.6476991,48.7644932 L46.1939469,50.1877571 L41.8195752,45.815235 C41.6097345,45.6057848 41.5017876,45.3165441 41.5270088,45.0233138 C41.5502124,44.7290861 41.7015398,44.4607904 41.9436637,44.287246 L46.9657168,40.6627603 Z M69,24.1301583 L69,66.9876574 C69,67.5471886 68.5419823,68 67.9760177,68 L36.7168142,68 C36.4444248,68 36.1851504,67.8932801 35.993469,67.7027802 C35.8017876,67.5132776 35.7079646,67.2709139 35.7079646,67.0026181 L35.7079646,55.0340357 L37.7256637,55.0340357 L37.7256637,66.0052363 L66.9823009,66.0052363 L66.9823009,25.1125795 L37.7256637,25.1125795 L37.7256637,23.1178157 L67.9760177,23.1178157 C68.5419823,23.1178157 69,23.5706271 69,24.1301583 L69,24.1301583 Z M33.1818053,34.5877073 C33.1818053,32.6607655 34.766708,31.0928812 36.7168142,31.0928812 C38.6669204,31.0928812 40.251823,32.6607655 40.251823,34.5877073 C40.251823,36.514649 38.6669204,38.0825333 36.7168142,38.0825333 C34.766708,38.0825333 33.1818053,36.514649 33.1818053,34.5877073 L33.1818053,34.5877073 Z M17.5486726,66.0092258 C15.5985664,66.0092258 14.0136637,64.4413415 14.0136637,62.5143997 C14.0136637,60.5874579 15.5985664,59.0195736 17.5486726,59.0195736 C19.4987788,59.0195736 21.0836814,60.5874579 21.0836814,62.5143997 C21.0836814,64.4413415 19.4987788,66.0092258 17.5486726,66.0092258 L17.5486726,66.0092258 Z M14.0136637,42.5667622 C14.0136637,40.6398205 15.5985664,39.0719362 17.5486726,39.0719362 C19.5310619,39.0719362 21.0836814,40.6069069 21.0836814,42.5667622 C21.0836814,44.493704 19.4987788,46.0615883 17.5486726,46.0615883 C15.5985664,46.0615883 14.0136637,44.493704 14.0136637,42.5667622 L14.0136637,42.5667622 Z M14.0176991,17.4856003 C14.0176991,15.5606533 15.6015929,13.9947637 17.5486726,13.9947637 C19.4957522,13.9947637 21.079646,15.5606533 21.079646,17.4856003 C21.079646,19.4095499 19.4957522,20.9764369 17.5486726,20.9764369 C15.6015929,20.9764369 14.0176991,19.4095499 14.0176991,17.4856003 L14.0176991,17.4856003 Z M37.7256637,47.2484728 L37.7256637,39.9715746 C40.2952035,39.4948261 42.2614513,37.2636828 42.2614513,34.5877073 C42.2614513,31.5656402 39.7736283,29.1060965 36.7168142,29.1060965 C33.66,29.1060965 31.172177,31.5656402 31.172177,34.5877073 C31.172177,37.2636828 33.1384248,39.4948261 35.7079646,39.9715746 L35.7079646,47.2484728 C35.7079646,48.41142 34.9220708,49.4656527 33.7275929,49.9344221 L23.2769204,54.034659 C21.6042478,54.6909363 20.3744602,55.9815484 19.8427965,57.5304825 C19.41,57.3349956 19.0417699,57.1943648 18.5575221,57.1135769 L18.5575221,47.9675851 C21.180531,47.5347214 23.0933097,45.2806383 23.0933097,42.5667622 C23.0933097,39.8030171 21.2148319,37.5948136 18.5575221,37.1739185 L18.5575221,22.8894153 C21.1835575,22.4575489 23.0973451,20.2014711 23.0973451,17.4856003 C23.0973451,14.4605411 20.6085133,12 17.5486726,12 C14.4888319,12 12,14.4605411 12,17.4856003 C12,20.1256701 14.0217345,22.3358683 16.539823,22.8545069 L16.539823,37.2018452 C14.0247611,37.7204837 12.0040354,39.9286872 12.0040354,42.5667622 C12.0040354,45.2048373 14.0247611,47.4130408 16.539823,47.9316793 L16.539823,57.1494826 C14.0247611,57.6681212 12.0040354,59.8763246 12.0040354,62.5143997 C12.0040354,65.5364668 14.4918584,67.9960105 17.5486726,67.9960105 C20.6054867,67.9960105 23.0933097,65.5364668 23.0933097,62.5143997 C23.0933097,61.0911358 22.5364248,59.7965341 21.6345133,58.8210946 C21.8019823,57.5504301 22.7008673,56.437352 24.0315398,55.9157212 L34.4822124,51.8154844 C36.4615752,51.0385239 37.7256637,49.2462286 37.7256637,47.2484728 L37.7256637,47.2484728 Z" id="AWS-CodeCommit_Icon_64_Squid" fill="#FFFFFF"></path>
    </g>
</svg>

<svg xmlns="http://www.w3.org/2000/svg" width="80" height="80"><defs><linearGradient id="a" x1="0%" x2="100%" y1="100%" y2="0%"><stop offset="0%" stop-color="#2E27AD"/><stop offset="100%" stop-color="#527FFF"/></linearGradient></defs><g fill="none" fill-rule="evenodd"><path fill="url(#a)" d="M0 0h80v80H0z"/><path fill="#FFF" d="M26.628 28.105h-2.017v-6.982c0-.558.36-.99.926-.99l7.144-.007v1.994H27.95l4.862 4.819-1.445 1.434-4.806-4.728.067 4.46Zm28.07 10.867 1.869.827-6.541 14.446-1.868-.827 6.54-14.446Zm1.311 10.493 4.003-2.89-3.526-3.535 1.458-1.422 4.36 4.373a1.002 1.002 0 0 1-.126 1.527l-4.963 3.58-1.206-1.633Zm-9.043-8.802 1.205 1.633-4.061 2.932 3.538 3.536-1.454 1.424-4.374-4.373a1 1 0 0 1 .124-1.528l5.022-3.624ZM69 24.13v42.858c0 .56-.458 1.012-1.024 1.012h-31.26c-.272 0-.53-.107-.723-.297a.958.958 0 0 1-.285-.7V55.034h2.018v10.971h29.256V25.113H37.726v-1.995h30.25c.566 0 1.024.453 1.024 1.012ZM33.182 34.588c0-1.927 1.585-3.495 3.535-3.495 1.95 0 3.535 1.568 3.535 3.495s-1.585 3.495-3.535 3.495c-1.95 0-3.535-1.568-3.535-3.495ZM17.549 66.009c-1.95 0-3.535-1.568-3.535-3.495s1.585-3.494 3.535-3.494c1.95 0 3.535 1.567 3.535 3.494 0 1.927-1.585 3.495-3.535 3.495Zm-3.535-23.442c0-1.927 1.585-3.495 3.535-3.495 1.982 0 3.535 1.535 3.535 3.495 0 1.927-1.585 3.495-3.535 3.495-1.95 0-3.535-1.568-3.535-3.495Zm.004-25.081c0-1.925 1.584-3.491 3.53-3.491 1.948 0 3.532 1.566 3.532 3.49 0 1.925-1.584 3.491-3.531 3.491s-3.531-1.566-3.531-3.49Zm23.708 29.762v-7.276c2.57-.477 4.535-2.708 4.535-5.384 0-3.022-2.487-5.482-5.544-5.482-3.057 0-5.545 2.46-5.545 5.482 0 2.676 1.966 4.907 4.536 5.384v7.276c0 1.163-.786 2.218-1.98 2.686l-10.451 4.1c-1.673.657-2.903 1.948-3.434 3.496-.433-.195-.801-.336-1.285-.416v-9.146c2.623-.433 4.535-2.687 4.535-5.401 0-2.764-1.878-4.972-4.535-5.393V22.889c2.626-.431 4.54-2.688 4.54-5.403 0-3.025-2.49-5.486-5.55-5.486C14.489 12 12 14.46 12 17.486c0 2.64 2.022 4.85 4.54 5.369v14.347c-2.515.518-4.536 2.727-4.536 5.365 0 2.638 2.02 4.846 4.536 5.365v9.217c-2.515.52-4.536 2.727-4.536 5.365 0 3.022 2.488 5.482 5.545 5.482 3.056 0 5.544-2.46 5.544-5.482a5.425 5.425 0 0 0-1.458-3.693c.167-1.27 1.066-2.384 2.397-2.905l10.45-4.1c1.98-.777 3.244-2.57 3.244-4.568Z"/></g></svg>
